X:1
T:Title
%%score { 1 | 2 }
L:1/8
Q:1/4=92
M:3/8
K:C
V:1 treble nm="Grand Piano"
V:2 bass 
V:1
 CEG | c2 A | B2 G | A3 | CEG | B2 G | A2 E | G3 | G^F=F | E2 E | F2 ^F | G3 | G^F=F | E2 D | FED | %15
w: ?????~???? * *|||||||||||||||
 C3 | CB,C | E2 D | F2 D | C3 | E_E=E | G2 ^F | A2 ^F | G3 | B_B=B | dcB | A^GA | cBA | G^FG | %29
w: ||||||||||||||
 BAG | FED | C3 | CEG | c2 A | B2 G | A3 | CEG | B2 G | A2 E | G3 | G^F=F | E2 E | F2 ^F | G3 | %44
w: |||||||||||||||
 G^F=F | E2 D | FED |[M:11/8] C3 z z z z z z z2 |] %48
w: ||||
V:2
 C,3 | [E,G,]3 | B,,3 | [F,G,]3 | C,3 | G,3 | [C,F,]3 | [B,,F,G,]3 | C,3 | [E,G,]3 | [F,A,]3 | %11
 [C,E,G,]3 | C,3 | [E,G,]3 | [B,,F,G,]3 | [C,E,G,]3 | C,3 | [E,G,]3 | [B,,F,G,]3 | [C,E,G,]3 | %20
 C,3 | [E,G,]3 | [C,F,A,]3 | [C,E,G,]3 | G,3 | [B,D]3 | F,3 | [A,C]3 | D,3 | [F,G,]3 | B,,3 | %31
 [C,E,G,]3 | C,3 | [E,G,]3 | B,,3 | [F,G,]3 | C,3 | G,3 | [C,F,]3 | [B,,F,G,]3 | C,3 | [E,G,]3 | %42
 [F,A,]3 | [C,E,G,]3 | C,3 | [E,G,]3 | [B,,F,G,]3 |[M:11/8] [C,E,G,]3 z z z z z z z2 |] %48

